X: 521
T: Aaron's Key
R: jig
M: 6/8
K: Bminor
|:F2B Bcd|cAA ABc|dBB Bcd|edc BAG|
FBB Bcd|cAA ABc|dcd efg|1 fdB BAG:|2 fdB B2c|
|:~d2d def|ecA a2g|~f2f fed|cde ABc|
BFB cBc|dcd ede|fed cBA|1 ~B2B B2c:|2 ~B2B BAG||

